X:1
T:Polonäs av C Hejschman
T:ur Ragnar Scheléns nothäfte
O:Västmanland
C:C Hejschman
R:Polska
Z: Nils L
B:SMUS katalog MMD36 nr 11 (låt nr 28 i [[Personer/Ragnar Schelén]]s nothäfte)
L:1/8
K:C
GA/B/ c2 e2 | dG c4 | Bdfagf | eGce c2 | GA/B/ c2 e2 | dG c4 | BdfagB | c2 c2 z2 :: 
ga/g/ fGBd | fg/f/ eGce | de/d/ BGBd | ((3cGc) ((3ece) g2 |
ga/g/ fGBd | fg/f/ eGce | de/d/ BGBd | c2 c2 z2 :|

